lib/healthicons/icons/outline/symbols/question.svg

<svg fill="none" height="48" viewBox="0 0 48 48" width="48" xmlns="http://www.w3.org/2000/svg"><path clip-rule="evenodd" d="m24.4999 29.2531c0-.9359.6491-1.7467 1.5624-1.9515 1.6942-.3799 3.5489-1.0468 5.1922-2.0955 2.602-1.6604 4.7454-4.3367 4.7454-8.3613 0-3.5571-1.3556-6.2472-3.479-8.05921-2.0978-1.79014-4.873-2.66463-7.6568-2.77376-2.6344-.10327-5.5859.51982-8.0093 1.90645-2.395 1.37029-4.2006 3.43312-4.8308 6.24962-.1205.539.2186 1.0736.7576 1.1942.5389.1206 1.0736-.2186 1.1942-.7575.9429-4.2145 5.7854-6.79127 10.8099-6.5943 2.4436.09579 4.755.86135 6.437 2.2967 1.6567 1.4137 2.7772 3.5374 2.7772 6.5378 0 3.1754-1.6392 5.2829-3.8213 6.6754-2.2097 1.4101-4.9113 2.0318-6.7484 2.1601-.5239.0366-.9303.4723-.9303.9975v5.322c0 .5523.4477 1 1 1s1-.4477 1-1zm1.0401 4.9463c.5904-.5479.9599-1.3306.9599-2.1996v-2.7467c1.8629-.4176 3.9469-1.159 5.8305-2.361 3.0221-1.9285 5.6695-5.1737 5.6695-10.0473 0-4.1138-1.5907-7.37038-4.1807-9.58058-2.5138-2.14509-5.7529-3.12839-8.8768-3.25085-5.9417-.23292-13.3174 2.77757-14.8701 9.71783-.36175 1.6169.6557 3.2209 2.2726 3.5827 1.6169.3617 3.2209-.6558 3.5826-2.2727.6473-2.893 4.2716-5.20917 8.7799-5.0324 2.1012.0823 3.9495.7379 5.217 1.8195 1.1912 1.0165 2.0755 2.5743 2.0755 5.0165 0 2.3378-1.147 3.8726-2.8971 4.9894-1.8577 1.1855-4.213 1.7392-5.8119 1.8509-1.5719.1098-2.791 1.417-2.791 2.9927v5.322c0 1.0035.4927 1.8919 1.2493 2.4365.4927.3546 1.0973.5635 1.7507.5635.1704 0 .3374-.0142.5-.0415.5894-.0988 1.1206-.3696 1.5401-.7589zm.2733 2.2342c-.5443-.2773-1.1606-.4337-1.8134-.4337-.1693 0-.3362.0105-.5.0309-.6404.0799-1.2337.3111-1.7432.6568-1.0602.7194-1.7568 1.9345-1.7568 3.3123 0 2.2091 1.7909 4 4 4s4-1.7909 4-4c0-1.5564-.8888-2.9051-2.1866-3.5663zm-1.8134 1.5663c-1.1046 0-2 .8954-2 2 0 1.1045.8954 2 2 2s2-.8955 2-2c0-1.1046-.8954-2-2-2z" fill="#333" fill-rule="evenodd"/></svg>

<svg width="48" height="48" viewBox="0 0 48 48" fill="none" xmlns="http://www.w3.org/2000/svg">
<path fill-rule="evenodd" clip-rule="evenodd" d="M24.4999 29.2531C24.4999 28.3172 25.149 27.5064 26.0623 27.3016C27.7565 26.9217 29.6112 26.2548 31.2545 25.2061C33.8565 23.5457 35.9999 20.8694 35.9999 16.8448C35.9999 13.2877 34.6443 10.5976 32.5209 8.78559C30.4231 6.99545 27.6479 6.12096 24.8641 6.01183C22.2297 5.90856 19.2782 6.53165 16.8548 7.91828C14.4598 9.28857 12.6542 11.3514 12.024 14.1679C11.9035 14.7069 12.2426 15.2415 12.7816 15.3621C13.3205 15.4827 13.8552 15.1435 13.9758 14.6046C14.9187 10.3901 19.7612 7.81333 24.7857 8.0103C27.2293 8.10609 29.5407 8.87165 31.2227 10.307C32.8794 11.7207 33.9999 13.8444 33.9999 16.8448C33.9999 20.0202 32.3607 22.1277 30.1786 23.5202C27.9689 24.9303 25.2673 25.552 23.4302 25.6803C22.9063 25.7169 22.4999 26.1526 22.4999 26.6778V31.9998C22.4999 32.5521 22.9476 32.9998 23.4999 32.9998C24.0522 32.9998 24.4999 32.5521 24.4999 31.9998V29.2531ZM25.54 34.1994C26.1304 33.6515 26.4999 32.8688 26.4999 31.9998V29.2531C28.3628 28.8355 30.4468 28.0941 32.3304 26.8921C35.3525 24.9636 37.9999 21.7184 37.9999 16.8448C37.9999 12.731 36.4092 9.47442 33.8192 7.26422C31.3054 5.11913 28.0663 4.13583 24.9424 4.01337C19.0007 3.78045 11.625 6.79094 10.0723 13.7312C9.71055 15.3481 10.728 16.9521 12.3449 17.3139C13.9618 17.6756 15.5658 16.6581 15.9275 15.0412C16.5748 12.1482 20.1991 9.83203 24.7074 10.0088C26.8086 10.0911 28.6569 10.7467 29.9244 11.8283C31.1156 12.8448 31.9999 14.4026 31.9999 16.8448C31.9999 19.1826 30.8529 20.7174 29.1028 21.8342C27.2451 23.0197 24.8898 23.5734 23.2909 23.6851C21.719 23.7949 20.4999 25.1021 20.4999 26.6778V31.9998C20.4999 33.0033 20.9926 33.8917 21.7492 34.4363C22.2419 34.7909 22.8465 34.9998 23.4999 34.9998C23.6703 34.9998 23.8373 34.9856 23.9999 34.9583C24.5893 34.8595 25.1205 34.5887 25.54 34.1994ZM25.8133 36.4336C25.269 36.1563 24.6527 35.9999 23.9999 35.9999C23.8306 35.9999 23.6637 36.0104 23.4999 36.0308C22.8595 36.1107 22.2662 36.3419 21.7567 36.6876C20.6965 37.407 19.9999 38.6221 19.9999 39.9999C19.9999 42.209 21.7908 43.9999 23.9999 43.9999C26.209 43.9999 27.9999 42.209 27.9999 39.9999C27.9999 38.4435 27.1111 37.0948 25.8133 36.4336ZM23.9999 37.9999C22.8953 37.9999 21.9999 38.8953 21.9999 39.9999C21.9999 41.1044 22.8953 41.9999 23.9999 41.9999C25.1045 41.9999 25.9999 41.1044 25.9999 39.9999C25.9999 38.8953 25.1045 37.9999 23.9999 37.9999Z" fill="#333333"/>
</svg>
